X: 19
T: Breaking Up Christmas
B: canberra pickers and fiddlers
B: tunes
M:4/4
L:1/8
R: reel
Q: 1/4=100
K:A
V:1 
+slide+[e2e2]-|"A"[ee]fed c-dee|ef-ec A2 +slide+[e2e22]-|"A"[ee]fed cAcA|"E7"B-AB-c "A"A2+slide+[e2e2]-|
"A"[ee]fed c-dee|1ef-ec A2 ^g2-|aeae =g2fg |"E7"ecB-c "A"A2:|
|2"A"e(fe)cA2a2-|a2a2-c'3f|"E7"ec-BA "A"A2||
|:[A,2E2]-|[A,E][FA]-[A2A2] [A3A3] A|AcBA FE[FA]A|EF[A2A2] [A3A3]A|AcBA A2:||
|:[A,2E2]-|[A,E][FA]-[AA]A [A2A2] AA|AcBA FEAF|EFA[AA]- [A2A2]cB|Ac-BA A2:|
|:[A,2E2]-|[A,E][FA][AA][AA] [AA]BcB|AcBA FEFF|EFAA ABcB|Ac-BA A2:|
% abcbook-tune_id 63ae8f1c651e74949abdc09e
% abcbook-tune_composer_id 
% abcbook-link-0 https://www.youtube.com/watch?v=8fGg2gUgkT0
% abcbook-link-start-at-0 12
% abcbook-boost 1
% abcbook-difficulty 0
% abcbook-tags canberra pickers and fiddlers,old time tunes,© free
% abcbook-tablature 
% abcbook-transpose 
% abcbook-tuning AEAE
% abcbook-lastupdated 1729469101429
% abcbook-src-url https://tunebook.net/scrape/tunes.abc
% abcbook-soundfonts 
% abcbook-repeats 1


